img/icons/icon5.svg

<svg xmlns="http://www.w3.org/2000/svg" viewBox="3340 2021 64 56.557"><defs><style>.cls-1{fill:#2a3052}</style></defs><g id="noun_683568_cc" transform="translate(3332 2008)"><path id="Path_2613" data-name="Path 2613" class="cls-1" d="M8 13v32.748h25.468a17.078 17.078 0 0 1 29.608-9.257V13zm24.4 5.931a1.489 1.489 0 0 1 1.651 1.512v17.862a1.489 1.489 0 1 1-2.977 0V20.443a1.489 1.489 0 0 1 1.326-1.512zM26.444 23.4a1.489 1.489 0 0 1 1.656 1.508v13.4a1.489 1.489 0 1 1-2.977 0v-13.4a1.489 1.489 0 0 1 1.321-1.508zm-5.954 4.462a1.489 1.489 0 0 1 1.651 1.512v8.931a1.489 1.489 0 1 1-2.977 0v-8.931a1.489 1.489 0 0 1 1.326-1.512zm-5.954 4.466a1.489 1.489 0 0 1 1.651 1.512v4.466a1.489 1.489 0 1 1-2.977 0V33.84a1.489 1.489 0 0 1 1.326-1.512zm35.888 1.512a14.141 14.141 0 1 0 8.885 25.119l10.163 10.164a1.536 1.536 0 0 0 2.117.023 1.565 1.565 0 0 0-.023-2.14L61.4 56.842a14.1 14.1 0 0 0-10.978-23zm0 2.977a11.164 11.164 0 1 1-11.165 11.164 11.142 11.142 0 0 1 11.165-11.164zM24.63 49.469l-1.744 5.21h-3.722v5.954h19.77a17.1 17.1 0 0 1-5.559-11.164z"/></g></svg>

<svg xmlns="http://www.w3.org/2000/svg" viewBox="3340 2021 64 56.557">
  <defs>
    <style>
      .cls-1 {
        fill: #2a3052;
      }
    </style>
  </defs>
  <g id="noun_683568_cc" transform="translate(3332 2008)">
    <path id="Path_2613" data-name="Path 2613" class="cls-1" d="M8,13V45.748H33.468a17.078,17.078,0,0,1,29.608-9.257V13Zm24.4,5.931a1.489,1.489,0,0,1,1.651,1.512V38.305a1.489,1.489,0,1,1-2.977,0V20.443A1.489,1.489,0,0,1,32.4,18.931ZM26.444,23.4A1.489,1.489,0,0,1,28.1,24.908v13.4a1.489,1.489,0,1,1-2.977,0v-13.4A1.489,1.489,0,0,1,26.444,23.4ZM20.49,27.862a1.489,1.489,0,0,1,1.651,1.512v8.931a1.489,1.489,0,1,1-2.977,0V29.374A1.489,1.489,0,0,1,20.49,27.862Zm-5.954,4.466a1.489,1.489,0,0,1,1.651,1.512v4.466a1.489,1.489,0,1,1-2.977,0V33.84A1.489,1.489,0,0,1,14.536,32.328ZM50.424,33.84a14.141,14.141,0,1,0,8.885,25.119L69.472,69.123a1.536,1.536,0,0,0,2.117.023,1.565,1.565,0,0,0-.023-2.14L61.4,56.842a14.1,14.1,0,0,0-10.978-23Zm0,2.977A11.164,11.164,0,1,1,39.259,47.981,11.142,11.142,0,0,1,50.424,36.817ZM24.63,49.469l-1.744,5.21H19.164v5.954h19.77a17.1,17.1,0,0,1-5.559-11.164Z"/>
  </g>
</svg>
